nextflow/nextflow_icon_dark.svg

<svg width="500" height="500" viewBox="0 0 500 500" fill="none" xmlns="http://www.w3.org/2000/svg">
<path d="M124.5 171.5C163.9 174.1 195.6 205.8 198 245.3H244.1C241.5 180.3 189.4 128.1 124.5 125.4V171.5Z" fill="#201637"/>
<path d="M198.3 255.801C195.7 295.301 164 326.901 124.5 329.301V375.401C189.5 372.801 241.7 320.701 244.4 255.801H198.3Z" fill="#201637"/>
<path d="M300.7 245C303.3 205.5 335 173.9 374.5 171.5V125.4C309.5 128 257.3 180.1 254.6 245H300.7Z" fill="#201637"/>
<path d="M374.5 329.3C335.1 326.7 303.4 295 301 255.5H254.9C257.5 320.5 309.6 372.7 374.5 375.4V329.3Z" fill="#201637"/>
</svg>

<?xml version="1.0" encoding="utf-8"?>
<!-- Generator: Adobe Illustrator 28.3.0, SVG Export Plug-In . SVG Version: 6.00 Build 0)  -->
<svg version="1.1" id="Layer_1" xmlns="http://www.w3.org/2000/svg" xmlns:xlink="http://www.w3.org/1999/xlink" x="0px" y="0px"
	 viewBox="0 0 500 500" style="enable-background:new 0 0 500 500;" xml:space="preserve">
<style type="text/css">
	.st0{fill:#160F26;}
</style>
<path class="st0" d="M124.5,171.5c39.4,2.6,71.1,34.3,73.5,73.8h46.1c-2.6-65-54.7-117.2-119.6-119.9V171.5z"/>
<path class="st0" d="M198.3,255.8c-2.6,39.5-34.3,71.1-73.8,73.5v46.1c65-2.6,117.2-54.7,119.9-119.6H198.3z"/>
<path class="st0" d="M300.7,245c2.6-39.5,34.3-71.1,73.8-73.5v-46.1c-65,2.6-117.2,54.7-119.9,119.6H300.7z"/>
<path class="st0" d="M374.5,329.3c-39.4-2.6-71.1-34.3-73.5-73.8h-46.1c2.6,65,54.7,117.2,119.6,119.9V329.3z"/>
</svg>
